X: 2399
T: Bale Lann Bihoué
R: hornpipe
M: 4/4
K: Amixolydian
A2 ce B2|cd cA BG|Ae cB A2|ce B2 cd|cA BG5|
[A2A2] ce|B2 cd cA|BG Ae cB|A2 ce B2|
cd cA BG|A4 A2|cd e2 ag|fe fe ed|
cB A2 cd|e2 ag fe|f2 e4|A2 cd e2|
ag fe fe|ed cB A2|cd e2 ag|fe f2 e4|
A2 cd|e2 ag fe|fe ed cB|A2 cd e2|ag fe f2|e4|

